; generated by PrusaSlicer 2.2.0+ on 2020-10-18 at 08:05:22 UTC

; 

; external perimeters extrusion width = 0.45mm
; perimeters extrusion width = 0.45mm
; infill extrusion width = 0.45mm
; solid infill extrusion width = 0.45mm
; top infill extrusion width = 0.40mm
; first layer extrusion width = 0.42mm

M73 P0 R332
M73 Q0 S336
M201 X1000 Y1000 Z200 E5000 ; sets maximum accelerations, mm/sec^2
M203 X200 Y200 Z12 E120 ; sets maximum feedrates, mm/sec
M204 P1250 R1250 T1250 ; sets acceleration (P, T) and retract acceleration (R), mm/sec^2
M205 X8.00 Y8.00 Z0.40 E4.50 ; sets the jerk limits, mm/sec
M205 S0 T0 ; sets the minimum extruding and travel feed rate, mm/sec
M107
M862.3 P "MK3" ; printer model check
M862.1 P0.4 ; nozzle diameter check
M115 U3.9.1 ; tell printer latest fw version
G90 ; use absolute coordinates
M83 ; extruder relative mode
M104 S215 ; set extruder temp
M140 S60 ; set bed temp
M190 S60 ; wait for bed temp
M109 S215 ; wait for extruder temp
G28 W ; home all without mesh bed level
G80 ; mesh bed leveling
G1 Y-3.0 F1000.0 ; go outside print area
G92 E0.0
G1 X60.0 E9.0 F1000.0 ; intro line
M73 Q0 S336
M73 P0 R332
G1 X100.0 E12.5 F1000.0 ; intro line
G92 E0.0
M221 S95

; Don't change E values below. Excessive value can damage the printer.
M907 E430 ; set extruder motor current
G21 ; set units to millimeters
G90 ; use absolute coordinates
M83 ; use relative distances for extrusion
; Filament gcode
;BEFORE_LAYER_CHANGE
G92 E0.0
;0.2


G1 E-0.80000 F2100.00000
G1 Z0.600 F10800.000
;AFTER_LAYER_CHANGE
;0.2
G1 X43.292 Y88.734
G1 Z0.200
G1 E0.80000 F2100.00000
M204 S1000
G1 F1200.000
G1 X44.089 Y87.970 E0.03462
G1 X44.616 Y87.671 E0.01899
G1 X45.287 Y87.449 E0.02217
G1 X51.985 Y86.373 E0.21269
G1 X198.004 Y86.373 E4.57833
G1 X204.656 Y87.438 E0.21123
G1 X205.620 Y87.789 E0.03217
G1 X206.293 Y88.276 E0.02606
G1 X206.939 Y89.093 E0.03263
G1 X208.182 Y91.806 E0.09358
G1 X208.340 Y92.334 E0.01728
G1 X208.362 Y119.020 E0.83672
G1 X208.175 Y119.708 E0.02237
G1 X207.043 Y122.214 E0.08620
G1 X206.707 Y122.768 E0.02031
G1 X205.911 Y123.530 E0.03457
G1 X205.384 Y123.829 E0.01898
G1 X204.714 Y124.051 E0.02215
G1 X198.015 Y125.127 E0.21271
G1 X51.931 Y125.126 E4.58036
G1 X45.340 Y124.061 E0.20934
G1 X44.383 Y123.713 E0.03194
G1 X43.709 Y123.226 E0.02606
G1 X43.068 Y122.418 E0.03235
G1 X41.674 Y119.241 E0.10879
G1 X41.623 Y118.753 E0.01538
G1 X41.638 Y92.480 E0.82377
G1 X41.825 Y91.792 E0.02237
G1 X42.957 Y89.286 E0.08620
G1 X43.261 Y88.785 E0.01837
G1 F8640.000
G1 X44.089 Y87.970 E-0.26835
G1 X44.616 Y87.671 E-0.13983
G1 X45.287 Y87.449 E-0.16328
G1 X46.093 Y87.320 E-0.18854
G1 E-0.04000 F2100.00000
G1 Z0.800 F10800.000
G1 X45.837 Y90.620
G1 Z0.200
G1 E0.80000 F2100.00000
G1 F1200.000
G1 X45.910 Y90.563 E0.00290
G1 X46.045 Y90.537 E0.00430
G1 X50.516 Y90.532 E0.14021
G1 X51.048 Y90.503 E0.01669
G1 X52.000 Y90.398 E0.03003
G1 X52.959 Y90.503 E0.03023
G1 X53.991 Y90.537 E0.03239
G1 X56.517 Y90.532 E0.07919
G1 X57.048 Y90.503 E0.01669
G1 X58.000 Y90.398 E0.03003
G1 X58.959 Y90.503 E0.03023
G1 X59.990 Y90.537 E0.03237
G1 X65.787 Y90.537 E0.18175
G1 X65.787 Y89.537 E0.03136
G1 X66.713 Y89.537 E0.02903
G1 X66.713 Y90.537 E0.03135
G1 X85.787 Y90.537 E0.59806
G1 X85.787 Y89.537 E0.03135
G1 X86.713 Y89.537 E0.02903
G1 X86.713 Y90.537 E0.03135
G1 X105.787 Y90.537 E0.59806
G1 X105.787 Y89.537 E0.03135
G1 X106.713 Y89.537 E0.02903
G1 X106.713 Y90.537 E0.03135
G1 X143.287 Y90.537 E1.14676
G1 X143.287 Y89.537 E0.03135
G1 X144.213 Y89.537 E0.02903
G1 X144.213 Y90.537 E0.03135
G1 X163.287 Y90.537 E0.59806
G1 X163.287 Y89.537 E0.03135
G1 X164.213 Y89.537 E0.02903
G1 X164.213 Y90.537 E0.03135
G1 X183.287 Y90.537 E0.59806
G1 X183.287 Y89.537 E0.03135
G1 X184.213 Y89.537 E0.02903
G1 X184.213 Y90.537 E0.03136
G1 X190.010 Y90.537 E0.18175
G1 X191.041 Y90.503 E0.03237
G1 X192.000 Y90.398 E0.03023
G1 X192.952 Y90.503 E0.03003
G1 X193.483 Y90.532 E0.01669
G1 X196.009 Y90.537 E0.07919
G1 X197.041 Y90.503 E0.03239
G1 X198.000 Y90.398 E0.03023
G1 X198.952 Y90.503 E0.03003
G1 X199.484 Y90.532 E0.01669
G1 X204.046 Y90.547 E0.14306
G1 X204.163 Y90.620 E0.00431
G1 X204.203 Y90.704 E0.00290
G1 X204.213 Y90.794 E0.00285
G1 X204.213 Y93.537 E0.08600
G1 X205.213 Y93.537 E0.03135
G1 X205.213 Y94.463 E0.02903
G1 X204.213 Y94.463 E0.03135
G1 X204.213 Y101.037 E0.20613
G1 X205.213 Y101.037 E0.03135
G1 X205.213 Y101.963 E0.02903
G1 X204.213 Y101.963 E0.03135
G1 X204.213 Y109.537 E0.23748
G1 X205.213 Y109.537 E0.03135
G1 X205.213 Y110.463 E0.02903
G1 X204.213 Y110.463 E0.03135
G1 X204.213 Y117.037 E0.20613
G1 X205.213 Y117.037 E0.03135
G1 X205.213 Y117.963 E0.02903
G1 X204.213 Y117.963 E0.03135
G1 X204.213 Y120.706 E0.08600
G1 X204.203 Y120.796 E0.00285
G1 X204.163 Y120.880 E0.00290
G1 X204.046 Y120.953 E0.00431
G1 X199.484 Y120.968 E0.14306
G1 X198.952 Y120.997 E0.01669
G1 X198.000 Y121.102 E0.03003
G1 X197.041 Y120.997 E0.03023
G1 X196.009 Y120.963 E0.03239
G1 X193.483 Y120.968 E0.07919
G1 X192.952 Y120.997 E0.01669
G1 X192.000 Y121.102 E0.03003
G1 X191.041 Y120.997 E0.03023
G1 X190.010 Y120.963 E0.03237
G1 X184.213 Y120.963 E0.18175
G1 X184.213 Y121.963 E0.03136
G1 X183.287 Y121.963 E0.02903
G1 X183.287 Y120.963 E0.03135
G1 X164.213 Y120.963 E0.59806
G1 X164.213 Y121.963 E0.03135
G1 X163.287 Y121.963 E0.02903
G1 X163.287 Y120.963 E0.03135
G1 X144.213 Y120.963 E0.59806
G1 X144.213 Y121.963 E0.03135
G1 X143.287 Y121.963 E0.02903
G1 X143.287 Y120.963 E0.03135
G1 X106.713 Y120.963 E1.14676
G1 X106.713 Y121.963 E0.03135
G1 X105.787 Y121.963 E0.02903
G1 X105.787 Y120.963 E0.03135
G1 X86.713 Y120.963 E0.59806
G1 X86.713 Y121.963 E0.03135
G1 X85.787 Y121.963 E0.02903
G1 X85.787 Y120.963 E0.03135
G1 X66.713 Y120.963 E0.59806
G1 X66.713 Y121.963 E0.03135
G1 X65.787 Y121.963 E0.02903
G1 X65.787 Y120.963 E0.03136
G1 X59.990 Y120.963 E0.18175
G1 X58.959 Y120.997 E0.03237
G1 X58.000 Y121.102 E0.03023
G1 X57.048 Y120.997 E0.03003
G1 X56.517 Y120.968 E0.01669
G1 X53.991 Y120.963 E0.07919
G1 X52.959 Y120.997 E0.03239
G1 X52.000 Y121.102 E0.03023
G1 X51.048 Y120.997 E0.03003
G1 X50.516 Y120.968 E0.01669
G1 X45.954 Y120.953 E0.14306
G1 X45.837 Y120.880 E0.00431
G1 X45.797 Y120.796 E0.00290
G1 X45.787 Y120.706 E0.00285
G1 X45.787 Y117.963 E0.08600
G1 X44.787 Y117.963 E0.03135
G1 X44.787 Y117.037 E0.02903
G1 X45.787 Y117.037 E0.03135
G1 X45.787 Y110.463 E0.20613
G1 X44.787 Y110.463 E0.03135
G1 X44.787 Y109.537 E0.02903
G1 X45.787 Y109.537 E0.03135
G1 X45.787 Y101.963 E0.23748
G1 X44.787 Y101.963 E0.03135
G1 X44.787 Y101.037 E0.02903
G1 X45.787 Y101.037 E0.03135
G1 X45.787 Y94.463 E0.20613
G1 X44.787 Y94.463 E0.03135
G1 X44.787 Y93.537 E0.02903
G1 X45.787 Y93.537 E0.03135
G1 X45.787 Y90.794 E0.08600
G1 X45.808 Y90.672 E0.00387
G1 F8640.000
G1 X45.910 Y90.563 E-0.03454
G1 X46.045 Y90.537 E-0.03168
G1 X49.049 Y90.533 E-0.69379
G1 E-0.04000 F2100.00000
G1 Z0.800 F10800.000
G1 X198.204 Y90.041
G1 Z0.200
G1 E0.80000 F2100.00000
G1 F1200.000
G1 X198.983 Y90.127 E0.02457
G1 X199.494 Y90.155 E0.01606
G1 X203.977 Y90.160 E0.14055
G1 X204.131 Y90.177 E0.00485
G1 X204.255 Y90.221 E0.00412
G1 X204.366 Y90.291 E0.00412
G1 X204.459 Y90.384 E0.00412
G1 X204.529 Y90.495 E0.00412
G1 X204.573 Y90.619 E0.00412
G1 X204.590 Y90.773 E0.00485
G1 X204.590 Y93.160 E0.07484
G1 X205.590 Y93.160 E0.03135
G1 X205.590 Y94.840 E0.05268
G1 X204.590 Y94.840 E0.03135
G1 X204.590 Y100.660 E0.18248
G1 X205.590 Y100.660 E0.03135
G1 X205.590 Y102.340 E0.05268
G1 X204.590 Y102.340 E0.03135
G1 X204.590 Y109.160 E0.21384
G1 X205.590 Y109.160 E0.03135
G1 X205.590 Y110.840 E0.05268
G1 X204.590 Y110.840 E0.03135
G1 X204.590 Y116.660 E0.18248
G1 X205.590 Y116.660 E0.03135
G1 X205.590 Y118.340 E0.05268
G1 X204.590 Y118.340 E0.03135
G1 X204.590 Y120.727 E0.07484
G1 X204.573 Y120.881 E0.00485
G1 X204.529 Y121.005 E0.00412
G1 X204.459 Y121.116 E0.00412
G1 X204.366 Y121.209 E0.00412
G1 X204.255 Y121.279 E0.00412
G1 X204.131 Y121.323 E0.00412
G1 X203.977 Y121.340 E0.00485
G1 X199.494 Y121.345 E0.14055
G1 X198.983 Y121.373 E0.01606
G1 X198.204 Y121.459 E0.02457
G1 X198.143 Y122.178 E0.02263
G1 X198.082 Y122.309 E0.00455
G1 X198.019 Y122.337 E0.00215
G1 X197.866 Y122.343 E0.00479
G1 X197.797 Y121.459 E0.02782
G1 X197.015 Y121.373 E0.02468
G1 X196.003 Y121.340 E0.03174
G1 X193.494 Y121.345 E0.07867
G1 X192.983 Y121.373 E0.01605
G1 X192.203 Y121.459 E0.02460
G1 X192.134 Y122.343 E0.02782
G1 X191.981 Y122.337 E0.00479
G1 X191.918 Y122.309 E0.00215
G1 X191.857 Y122.178 E0.00455
G1 X191.796 Y121.459 E0.02263
G1 X191.015 Y121.373 E0.02464
G1 X190.003 Y121.340 E0.03173
G1 X184.590 Y121.340 E0.16973
G1 X184.590 Y122.340 E0.03135
G1 X182.910 Y122.340 E0.05268
G1 X182.910 Y121.340 E0.03135
G1 X164.590 Y121.340 E0.57441
G1 X164.590 Y122.340 E0.03135
G1 X162.910 Y122.340 E0.05268
G1 X162.910 Y121.340 E0.03135
G1 X144.590 Y121.340 E0.57441
G1 X144.590 Y122.340 E0.03135
G1 X142.910 Y122.340 E0.05268
G1 X142.910 Y121.340 E0.03135
G1 X107.090 Y121.340 E1.12311
G1 X107.090 Y122.340 E0.03135
G1 X105.410 Y122.340 E0.05268
G1 X105.410 Y121.340 E0.03135
G1 X87.090 Y121.340 E0.57441
G1 X87.090 Y122.340 E0.03135
G1 X85.410 Y122.340 E0.05268
G1 X85.410 Y121.340 E0.03135
G1 X67.090 Y121.340 E0.57441
G1 X67.090 Y122.340 E0.03135
G1 X65.410 Y122.340 E0.05268
G1 X65.410 Y121.340 E0.03135
G1 X59.997 Y121.340 E0.16973
G1 X58.985 Y121.373 E0.03173
G1 X58.204 Y121.459 E0.02464
G1 X58.143 Y122.178 E0.02263
G1 X58.082 Y122.309 E0.00455
G1 X58.019 Y122.337 E0.00215
G1 X57.866 Y122.343 E0.00479
G1 X57.797 Y121.459 E0.02782
G1 X57.017 Y121.373 E0.02460
G1 X56.506 Y121.345 E0.01605
G1 X53.997 Y121.340 E0.07867
G1 X52.985 Y121.373 E0.03174
G1 X52.203 Y121.459 E0.02468
G1 X52.134 Y122.343 E0.02782
G1 X51.981 Y122.337 E0.00479
G1 X51.918 Y122.309 E0.00215
G1 X51.857 Y122.178 E0.00455
G1 X51.796 Y121.459 E0.02263
G1 X51.017 Y121.373 E0.02457
G1 X50.506 Y121.345 E0.01606
G1 X46.023 Y121.340 E0.14055
G1 X45.869 Y121.323 E0.00485
G1 X45.745 Y121.279 E0.00412
G1 X45.634 Y121.209 E0.00412
G1 X45.541 Y121.116 E0.00412
G1 X45.471 Y121.005 E0.00412
G1 X45.427 Y120.881 E0.00412
G1 X45.410 Y120.727 E0.00485
G1 X45.410 Y118.340 E0.07484
G1 X44.410 Y118.340 E0.03135
G1 X44.410 Y116.660 E0.05268
G1 X45.410 Y116.660 E0.03135
G1 X45.410 Y110.840 E0.18248
G1 X44.410 Y110.840 E0.03135
G1 X44.410 Y109.160 E0.05268
G1 X45.410 Y109.160 E0.03135
G1 X45.410 Y102.340 E0.21384
M73 Q0 S335
G1 X44.410 Y102.340 E0.03135
G1 X44.410 Y100.660 E0.05268
G1 X45.410 Y100.660 E0.03135
G1 X45.410 Y94.840 E0.18248
G1 X44.410 Y94.840 E0.03135
G1 X44.410 Y93.160 E0.05268
G1 X45.410 Y93.160 E0.03135
G1 X45.410 Y90.773 E0.07484
M73 P0 R331
G1 X45.427 Y90.619 E0.00485
G1 X45.471 Y90.495 E0.00412
G1 X45.541 Y90.384 E0.00412
G1 X45.634 Y90.291 E0.00412
G1 X45.745 Y90.221 E0.00412
G1 X45.869 Y90.177 E0.00412
G1 X46.023 Y90.160 E0.00485
G1 X50.506 Y90.155 E0.14055
G1 X51.017 Y90.127 E0.01606
G1 X51.796 Y90.041 E0.02457
G1 X51.857 Y89.322 E0.02263
G1 X51.918 Y89.191 E0.00455
G1 X51.981 Y89.163 E0.00215
G1 X52.134 Y89.157 E0.00479
G1 X52.203 Y90.041 E0.02782
G1 X52.985 Y90.127 E0.02468
G1 X53.997 Y90.160 E0.03174
G1 X56.506 Y90.155 E0.07867
G1 X57.017 Y90.127 E0.01605
G1 X57.797 Y90.041 E0.02460
G1 X57.866 Y89.157 E0.02782
G1 X58.019 Y89.163 E0.00479
G1 X58.082 Y89.191 E0.00215
G1 X58.143 Y89.322 E0.00455
G1 X58.204 Y90.041 E0.02263
G1 X58.985 Y90.127 E0.02464
G1 X59.997 Y90.160 E0.03173
G1 X65.410 Y90.160 E0.16973
G1 X65.410 Y89.160 E0.03135
G1 X67.090 Y89.160 E0.05268
G1 X67.090 Y90.160 E0.03135
G1 X85.410 Y90.160 E0.57441
G1 X85.410 Y89.160 E0.03135
G1 X87.090 Y89.160 E0.05268
G1 X87.090 Y90.160 E0.03135
G1 X105.410 Y90.160 E0.57441
G1 X105.410 Y89.160 E0.03135
G1 X107.090 Y89.160 E0.05268
G1 X107.090 Y90.160 E0.03135
G1 X142.910 Y90.160 E1.12311
G1 X142.910 Y89.160 E0.03135
G1 X144.590 Y89.160 E0.05268
G1 X144.590 Y90.160 E0.03135
G1 X162.910 Y90.160 E0.57441
G1 X162.910 Y89.160 E0.03135
G1 X164.590 Y89.160 E0.05268
G1 X164.590 Y90.160 E0.03135
G1 X182.910 Y90.160 E0.57441
G1 X182.910 Y89.160 E0.03135
G1 X184.590 Y89.160 E0.05268
G1 X184.590 Y90.160 E0.03135
G1 X190.003 Y90.160 E0.16973
G1 X191.015 Y90.127 E0.03173
G1 X191.796 Y90.041 E0.02464
G1 X191.857 Y89.322 E0.02263
G1 X191.918 Y89.191 E0.00455
G1 X191.981 Y89.163 E0.00215
G1 X192.134 Y89.157 E0.00479
G1 X192.203 Y90.041 E0.02782
G1 X192.983 Y90.127 E0.02460
G1 X193.494 Y90.155 E0.01605
G1 X196.003 Y90.160 E0.07867
G1 X197.015 Y90.127 E0.03174
G1 X197.797 Y90.041 E0.02468
G1 X197.867 Y89.153 E0.02793
G1 X198.012 Y89.160 E0.00455
G1 X198.073 Y89.187 E0.00212
G1 X198.109 Y89.228 E0.00169
G1 X198.143 Y89.315 E0.00292
G1 X198.199 Y89.982 E0.02099
G1 X198.190 Y90.441 F10800.000
G1 F8640.000
G1 X198.983 Y90.127 E-0.18411
G1 X199.494 Y90.155 E-0.11824
G1 X201.476 Y90.157 E-0.45765
G1 E-0.04000 F2100.00000
G1 Z0.800 F10800.000
G1 X204.100 Y91.490
G1 Z0.200
G1 E0.80000 F2100.00000
G1 F1200.000
G1 X203.438 Y90.828 E0.02936
G1 X202.903 Y90.826 E0.01679
G1 X203.930 Y91.854 E0.04558
G1 X203.930 Y92.387 E0.01674
G1 X202.367 Y90.824 E0.06933
G1 X201.832 Y90.823 E0.01679
G1 X203.930 Y92.921 E0.09308
G1 X203.930 Y93.454 E0.01674
G1 X201.297 Y90.821 E0.11683
G1 X200.761 Y90.819 E0.01679
G1 X204.123 Y94.180 E0.14911
G1 X204.656 Y94.180 E0.01674
G1 X204.296 Y93.820 E0.01598
G1 X204.829 Y93.820 E0.01674
G1 X205.100 Y94.090 E0.01200
G1 F8640.000
G1 X204.829 Y93.820 E-0.08834
G1 X204.296 Y93.820 E-0.12319
G1 X204.656 Y94.180 E-0.11764
G1 X204.123 Y94.180 E-0.12319
G1 X203.180 Y93.238 E-0.30765
G1 E-0.04000 F2100.00000
G1 Z0.800 F10800.000
G1 X204.100 Y94.691
G1 Z0.200
G1 E0.80000 F2100.00000
G1 F1200.000
G1 X200.226 Y90.817 E0.17185
G1 X199.691 Y90.815 E0.01679
G1 X203.930 Y95.055 E0.18807
G1 X203.930 Y95.588 E0.01674
G1 X199.138 Y90.796 E0.21259
G1 X198.552 Y90.743 E0.01846
G1 X203.930 Y96.122 E0.23860
G1 X203.930 Y96.655 E0.01674
G1 X197.962 Y90.687 E0.26476
G1 X197.481 Y90.740 E0.01517
G1 X203.930 Y97.189 E0.28609
G1 X203.930 Y97.722 E0.01674
G1 X196.996 Y90.788 E0.30763
G1 X196.479 Y90.805 E0.01622
G1 X203.930 Y98.256 E0.33055
G1 X203.930 Y98.789 E0.01674
G1 X195.960 Y90.819 E0.35356
G1 X195.426 Y90.818 E0.01677
G1 X203.930 Y99.323 E0.37727
G1 X203.930 Y99.856 E0.01674
G1 X194.891 Y90.817 E0.40099
G1 X194.357 Y90.816 E0.01677
G1 X203.930 Y100.390 E0.42470
G1 X203.930 Y100.923 E0.01674
G1 X193.822 Y90.815 E0.44841
G1 X193.277 Y90.804 E0.01710
G1 X204.153 Y101.680 E0.48250
G1 X204.687 Y101.680 E0.01674
G1 X204.327 Y101.320 E0.01598
G1 X204.860 Y101.320 E0.01674
G1 X205.100 Y101.560 E0.01063
G1 F8640.000
G1 X204.860 Y101.320 E-0.07826
G1 X204.327 Y101.320 E-0.12319
G1 X204.687 Y101.680 E-0.11764
G1 X204.153 Y101.680 E-0.12319
G1 X203.180 Y100.707 E-0.31772
G1 E-0.04000 F2100.00000
G1 Z0.800 F10800.000
G1 X204.100 Y102.160
G1 Z0.200
G1 E0.80000 F2100.00000
G1 F1200.000
G1 X192.699 Y90.759 E0.50575
G1 X192.100 Y90.694 E0.01890
G1 X203.930 Y102.524 E0.52480
G1 X203.930 Y103.057 E0.01674
G1 X191.599 Y90.727 E0.54701
G1 X191.119 Y90.779 E0.01517
G1 X203.930 Y103.591 E0.56834
G1 X203.930 Y104.124 E0.01674
G1 X190.606 Y90.800 E0.59108
G1 X190.089 Y90.817 E0.01622
G1 X203.930 Y104.658 E0.61400
G1 X203.930 Y105.191 E0.01674
G1 X189.558 Y90.820 E0.63756
G1 X189.025 Y90.820 E0.01673
G1 X203.930 Y105.725 E0.66123
G1 X203.930 Y106.258 E0.01674
G1 X188.491 Y90.820 E0.68489
G1 X187.958 Y90.820 E0.01673
G1 X203.930 Y106.792 E0.70856
G1 X203.930 Y107.325 E0.01674
G1 X187.424 Y90.820 E0.73222
G1 X186.891 Y90.820 E0.01673
G1 X203.930 Y107.859 E0.75589
G1 X203.930 Y108.393 E0.01674
G1 X186.357 Y90.820 E0.77955
G1 X185.824 Y90.820 E0.01673
G1 X203.930 Y108.926 E0.80322
G1 X203.930 Y109.460 E0.01674
G1 X185.290 Y90.820 E0.82689
G1 X184.757 Y90.820 E0.01673
G1 X204.117 Y110.180 E0.85885
G1 X204.651 Y110.180 E0.01674
G1 X204.290 Y109.820 E0.01598
G1 X204.824 Y109.820 E0.01674
G1 X205.100 Y110.096 E0.01224
G1 F8640.000
G1 X204.824 Y109.820 E-0.09007
G1 X204.290 Y109.820 E-0.12319
G1 X204.651 Y110.180 E-0.11764
G1 X204.117 Y110.180 E-0.12319
G1 X203.180 Y109.243 E-0.30591
G1 E-0.04000 F2100.00000
G1 Z0.800 F10800.000
G1 X184.100 Y121.640
G1 Z0.200
G1 E0.80000 F2100.00000
