; generated by PrusaSlicer 2.2.0+ on 2020-10-18 at 14:35:51 UTC

; 

; external perimeters extrusion width = 0.45mm
; perimeters extrusion width = 0.45mm
; infill extrusion width = 0.45mm
; solid infill extrusion width = 0.45mm
; top infill extrusion width = 0.40mm
; first layer extrusion width = 0.42mm

M73 P0 R26
M73 Q0 S26
M201 X1000 Y1000 Z200 E5000 ; sets maximum accelerations, mm/sec^2
M203 X200 Y200 Z12 E120 ; sets maximum feedrates, mm/sec
M204 P1250 R1250 T1250 ; sets acceleration (P, T) and retract acceleration (R), mm/sec^2
M205 X8.00 Y8.00 Z0.40 E4.50 ; sets the jerk limits, mm/sec
M205 S0 T0 ; sets the minimum extruding and travel feed rate, mm/sec
M107
M862.3 P "MK3" ; printer model check
M862.1 P0.4 ; nozzle diameter check
M115 U3.9.1 ; tell printer latest fw version
G90 ; use absolute coordinates
M83 ; extruder relative mode
M104 S215 ; set extruder temp
M140 S60 ; set bed temp
M190 S60 ; wait for bed temp
M109 S215 ; wait for extruder temp
G28 W ; home all without mesh bed level
G80 ; mesh bed leveling
G1 Y-3.0 F1000.0 ; go outside print area
G92 E0.0
G1 X60.0 E9.0 F1000.0 ; intro line
M73 Q0 S26
M73 P0 R26
G1 X100.0 E12.5 F1000.0 ; intro line
G92 E0.0
M221 S95

; Don't change E values below. Excessive value can damage the printer.
M907 E430 ; set extruder motor current
G21 ; set units to millimeters
G90 ; use absolute coordinates
M83 ; use relative distances for extrusion
; Filament gcode
;BEFORE_LAYER_CHANGE
G92 E0.0
;0.2


G1 E-0.80000 F2100.00000
G1 Z0.600 F10800.000
;AFTER_LAYER_CHANGE
;0.2
G1 X119.722 Y81.288
G1 Z0.200
G1 E0.80000 F2100.00000
M204 S1000
G1 F1200.000
G1 X129.804 Y81.246 E0.31612
G1 X130.821 Y81.442 E0.03246
G1 X131.690 Y81.997 E0.03233
G1 X132.296 Y82.836 E0.03246
G1 X132.549 Y83.835 E0.03233
G1 X132.554 Y126.004 E1.32217
G1 X132.493 Y126.578 E0.01809
G1 X132.203 Y127.346 E0.02574
G1 X131.699 Y127.994 E0.02574
G1 X131.027 Y128.466 E0.02574
G1 X130.246 Y128.718 E0.02574
G1 X120.192 Y128.754 E0.31523
G1 X119.622 Y128.693 E0.01796
G1 X118.787 Y128.364 E0.02816
G1 X118.099 Y127.780 E0.02828
G1 X117.638 Y127.010 E0.02816
G1 X117.449 Y126.128 E0.02828
G1 X117.446 Y83.996 E1.32102
G1 X117.507 Y83.422 E0.01809
G1 X117.793 Y82.661 E0.02549
G1 X118.289 Y82.017 E0.02549
G1 X118.951 Y81.545 E0.02549
G1 X119.665 Y81.307 E0.02361
G1 X119.779 Y81.668 F10800.000
G1 F1200.000
G1 X119.831 Y81.652 E0.00170
G1 X129.804 Y81.623 E0.31269
G1 X130.685 Y81.794 E0.02813
G1 X131.440 Y82.279 E0.02813
G1 X131.959 Y83.006 E0.02802
G1 X132.174 Y83.877 E0.02813
G1 X132.177 Y126.004 E1.32085
G1 X132.123 Y126.503 E0.01574
G1 X131.868 Y127.173 E0.02249
G1 X131.424 Y127.736 E0.02249
G1 X130.832 Y128.141 E0.02249
G1 X130.146 Y128.352 E0.02249
G1 X120.192 Y128.377 E0.31210
G1 X119.697 Y128.323 E0.01562
G1 X118.971 Y128.035 E0.02449
G1 X118.381 Y127.530 E0.02437
G1 X117.983 Y126.857 E0.02449
G1 X117.825 Y126.096 E0.02437
G1 X117.823 Y83.996 E1.32002
G1 X117.877 Y83.497 E0.01574
G1 X118.129 Y82.834 E0.02225
G1 X118.568 Y82.272 E0.02237
G1 X119.154 Y81.865 E0.02237
G1 X119.722 Y81.686 E0.01867
G1 F8640.000
G1 X119.831 Y81.652 E-0.02639
G1 X123.008 Y81.643 E-0.73361
G1 E-0.04000 F2100.00000
G1 Z0.800 F10800.000
G1 X120.987 Y84.787
G1 Z0.200
G1 E0.80000 F2100.00000
G1 F1200.000
G1 X129.013 Y84.787 E0.25164
G1 X129.013 Y125.213 E1.26752
G1 X120.987 Y125.213 E0.25164
G1 X120.987 Y84.847 E1.26564
G1 X120.610 Y84.410 F10800.000
G1 F1200.000
G1 X129.390 Y84.410 E0.27529
G1 X129.390 Y125.590 E1.29117
G1 X120.610 Y125.590 E0.27529
G1 X120.610 Y84.470 E1.28929
G1 X120.970 Y84.585 F10800.000
G1 F8640.000
G1 X123.901 Y84.448 E-0.76000
G1 E-0.04000 F2100.00000
G1 Z0.800 F10800.000
G1 X121.864 Y125.100
G1 Z0.200
G1 E0.80000 F2100.00000
G1 F1200.000
G1 X121.270 Y124.506 E0.02637
G1 X121.270 Y123.972 E0.01678
G1 X122.228 Y124.930 E0.04256
G1 X122.762 Y124.930 E0.01678
G1 X121.270 Y123.438 E0.06629
G1 X121.270 Y122.904 E0.01678
G1 X123.296 Y124.930 E0.09001
G1 X123.831 Y124.930 E0.01678
G1 X121.270 Y122.369 E0.11374
G1 X121.270 Y121.835 E0.01678
G1 X124.365 Y124.930 E0.13746
G1 X124.899 Y124.930 E0.01678
G1 X121.270 Y121.301 E0.16119
G1 X121.270 Y120.767 E0.01678
G1 X125.433 Y124.930 E0.18491
G1 X125.967 Y124.930 E0.01678
G1 X121.270 Y120.233 E0.20864
G1 X121.270 Y119.699 E0.01678
G1 X126.501 Y124.930 E0.23236
G1 X127.036 Y124.930 E0.01678
G1 X121.270 Y119.164 E0.25609
G1 X121.270 Y118.630 E0.01678
G1 X127.570 Y124.930 E0.27981
G1 X128.104 Y124.930 E0.01678
G1 X121.270 Y118.096 E0.30354
G1 X121.270 Y117.562 E0.01678
G1 X128.638 Y124.930 E0.32727
G1 X128.730 Y124.930 E0.00289
G1 X128.730 Y124.488 E0.01389
G1 X121.270 Y117.028 E0.33135
G1 X121.270 Y116.494 E0.01678
G1 X128.730 Y123.954 E0.33135
G1 X128.730 Y123.420 E0.01678
G1 X121.270 Y115.959 E0.33135
G1 X121.270 Y115.425 E0.01678
G1 X128.730 Y122.885 E0.33135
G1 X128.730 Y122.351 E0.01678
G1 X121.270 Y114.891 E0.33135
G1 X121.270 Y114.357 E0.01678
G1 X128.730 Y121.817 E0.33135
G1 X128.730 Y121.283 E0.01678
G1 X121.270 Y113.823 E0.33135
G1 X121.270 Y113.289 E0.01678
G1 X128.730 Y120.749 E0.33135
G1 X128.730 Y120.215 E0.01678
G1 X121.270 Y112.754 E0.33135
G1 X121.270 Y112.220 E0.01678
G1 X128.730 Y119.681 E0.33135
G1 X128.730 Y119.146 E0.01678
G1 X121.270 Y111.686 E0.33135
G1 X121.270 Y111.152 E0.01678
G1 X128.730 Y118.612 E0.33135
G1 X128.730 Y118.078 E0.01678
G1 X121.270 Y110.618 E0.33135
G1 X121.270 Y110.084 E0.01678
G1 X128.730 Y117.544 E0.33135
G1 X128.730 Y117.010 E0.01678
G1 X121.270 Y109.549 E0.33135
G1 X121.270 Y109.015 E0.01678
G1 X128.730 Y116.476 E0.33135
G1 X128.730 Y115.941 E0.01678
G1 X121.270 Y108.481 E0.33135
G1 X121.270 Y107.947 E0.01678
G1 X128.730 Y115.407 E0.33135
G1 X128.730 Y114.873 E0.01678
G1 X121.270 Y107.413 E0.33135
G1 X121.270 Y106.879 E0.01678
G1 X128.730 Y114.339 E0.33135
G1 X128.730 Y113.805 E0.01678
G1 X121.270 Y106.344 E0.33135
G1 X121.270 Y105.810 E0.01678
G1 X128.730 Y113.271 E0.33135
G1 X128.730 Y112.736 E0.01678
G1 X121.270 Y105.276 E0.33135
G1 X121.270 Y104.742 E0.01678
G1 X128.730 Y112.202 E0.33135
G1 X128.730 Y111.668 E0.01678
G1 X121.270 Y104.208 E0.33135
G1 X121.270 Y103.674 E0.01678
G1 X128.730 Y111.134 E0.33135
G1 X128.730 Y110.600 E0.01678
G1 X121.270 Y103.140 E0.33135
G1 X121.270 Y102.605 E0.01678
G1 X128.730 Y110.066 E0.33135
G1 X128.730 Y109.531 E0.01678
G1 X121.270 Y102.071 E0.33135
G1 X121.270 Y101.537 E0.01678
G1 X128.730 Y108.997 E0.33135
G1 X128.730 Y108.463 E0.01678
G1 X121.270 Y101.003 E0.33135
G1 X121.270 Y100.469 E0.01678
G1 X128.730 Y107.929 E0.33135
G1 X128.730 Y107.395 E0.01678
G1 X121.270 Y99.935 E0.33135
G1 X121.270 Y99.400 E0.01678
G1 X128.730 Y106.861 E0.33135
G1 X128.730 Y106.326 E0.01678
G1 X121.270 Y98.866 E0.33135
G1 X121.270 Y98.332 E0.01678
G1 X128.730 Y105.792 E0.33135
G1 X128.730 Y105.258 E0.01678
G1 X121.270 Y97.798 E0.33135
G1 X121.270 Y97.264 E0.01678
G1 X128.730 Y104.724 E0.33135
G1 X128.730 Y104.190 E0.01678
G1 X121.270 Y96.730 E0.33135
G1 X121.270 Y96.195 E0.01678
G1 X128.730 Y103.656 E0.33135
G1 X128.730 Y103.121 E0.01678
G1 X121.270 Y95.661 E0.33135
G1 X121.270 Y95.127 E0.01678
G1 X128.730 Y102.587 E0.33135
G1 X128.730 Y102.053 E0.01678
G1 X121.270 Y94.593 E0.33135
G1 X121.270 Y94.059 E0.01678
G1 X128.730 Y101.519 E0.33135
G1 X128.730 Y100.985 E0.01678
G1 X121.270 Y93.525 E0.33135
G1 X121.270 Y92.990 E0.01678
G1 X128.730 Y100.451 E0.33135
G1 X128.730 Y99.917 E0.01678
G1 X121.270 Y92.456 E0.33135
G1 X121.270 Y91.922 E0.01678
G1 X128.730 Y99.382 E0.33135
G1 X128.730 Y98.848 E0.01678
G1 X121.270 Y91.388 E0.33135
G1 X121.270 Y90.854 E0.01678
G1 X128.730 Y98.314 E0.33135
G1 X128.730 Y97.780 E0.01678
G1 X121.270 Y90.320 E0.33135
G1 X121.270 Y89.785 E0.01678
M73 Q4 S25
G1 X128.730 Y97.246 E0.33135
M73 P4 R25
G1 X128.730 Y96.712 E0.01678
G1 X121.270 Y89.251 E0.33135
G1 X121.270 Y88.717 E0.01678
G1 X128.730 Y96.177 E0.33135
G1 X128.730 Y95.643 E0.01678
G1 X121.270 Y88.183 E0.33135
G1 X121.270 Y87.649 E0.01678
G1 X128.730 Y95.109 E0.33135
G1 X128.730 Y94.575 E0.01678
G1 X121.270 Y87.115 E0.33135
G1 X121.270 Y86.580 E0.01678
G1 X128.730 Y94.041 E0.33135
G1 X128.730 Y93.507 E0.01678
G1 X121.270 Y86.046 E0.33135
G1 X121.270 Y85.512 E0.01678
G1 X128.730 Y92.972 E0.33135
G1 X128.730 Y92.438 E0.01678
G1 X121.362 Y85.070 E0.32727
G1 X121.896 Y85.070 E0.01678
G1 X128.730 Y91.904 E0.30355
G1 X128.730 Y91.370 E0.01678
G1 X122.430 Y85.070 E0.27982
G1 X122.964 Y85.070 E0.01678
G1 X128.730 Y90.836 E0.25610
G1 X128.730 Y90.302 E0.01678
G1 X123.498 Y85.070 E0.23237
G1 X124.033 Y85.070 E0.01678
G1 X128.730 Y89.767 E0.20864
G1 X128.730 Y89.233 E0.01678
G1 X124.567 Y85.070 E0.18492
G1 X125.101 Y85.070 E0.01678
G1 X128.730 Y88.699 E0.16119
G1 X128.730 Y88.165 E0.01678
G1 X125.635 Y85.070 E0.13747
G1 X126.169 Y85.070 E0.01678
G1 X128.730 Y87.631 E0.11374
G1 X128.730 Y87.097 E0.01678
G1 X126.703 Y85.070 E0.09002
G1 X127.238 Y85.070 E0.01678
G1 X128.730 Y86.562 E0.06629
G1 X128.730 Y86.028 E0.01678
G1 X127.772 Y85.070 E0.04257
G1 X128.306 Y85.070 E0.01678
G1 X128.900 Y85.664 E0.02638
;BEFORE_LAYER_CHANGE
G92 E0.0
;0.35


G1 F8640.000
G1 X128.306 Y85.070 E-0.19394
G1 X127.772 Y85.070 E-0.12334
G1 X128.730 Y86.028 E-0.31296
G1 X128.730 Y86.562 E-0.12334
G1 X128.710 Y86.543 E-0.00642
G1 E-0.04000 F2100.00000
G1 Z0.800 F10800.000
;AFTER_LAYER_CHANGE
;0.35
G1 X132.296 Y82.836
G1 Z0.350
G1 E0.80000 F2100.00000
G1 F3000.000
G1 X132.549 Y83.835 E0.02494
G1 X132.554 Y126.004 E1.01985
G1 X132.493 Y126.578 E0.01396
G1 X132.203 Y127.346 E0.01986
G1 X131.699 Y127.994 E0.01986
G1 X131.027 Y128.466 E0.01986
G1 X130.246 Y128.718 E0.01986
G1 X120.192 Y128.754 E0.24315
G1 X119.622 Y128.693 E0.01386
G1 X118.787 Y128.364 E0.02172
G1 X118.099 Y127.780 E0.02182
G1 X117.638 Y127.010 E0.02172
G1 X117.449 Y126.128 E0.02182
G1 X117.446 Y83.996 E1.01895
G1 X117.507 Y83.422 E0.01396
G1 X117.793 Y82.661 E0.01966
G1 X118.289 Y82.017 E0.01966
G1 X118.951 Y81.545 E0.01966
G1 X119.722 Y81.288 E0.01966
G1 X129.804 Y81.246 E0.24384
G1 X130.821 Y81.442 E0.02504
G1 X131.690 Y81.997 E0.02494
G1 X132.261 Y82.787 E0.02359
G1 X131.958 Y83.004 F10800.000
G1 F3000.000
G1 X132.174 Y83.877 E0.02176
G1 X132.177 Y126.004 E1.01883
G1 X132.123 Y126.503 E0.01214
G1 X131.868 Y127.173 E0.01734
G1 X131.424 Y127.736 E0.01734
G1 X130.832 Y128.141 E0.01734
G1 X130.146 Y128.352 E0.01734
G1 X120.192 Y128.377 E0.24074
G1 X119.697 Y128.323 E0.01205
G1 X118.971 Y128.035 E0.01889
G1 X118.381 Y127.530 E0.01880
G1 X117.983 Y126.857 E0.01889
G1 X117.825 Y126.096 E0.01880
G1 X117.823 Y83.996 E1.01819
G1 X117.877 Y83.497 E0.01214
G1 X118.129 Y82.834 E0.01716
G1 X118.568 Y82.272 E0.01725
G1 X119.154 Y81.865 E0.01725
G1 X119.831 Y81.652 E0.01716
G1 X129.804 Y81.623 E0.24119
G1 X130.685 Y81.794 E0.02170
G1 X131.440 Y82.279 E0.02170
G1 X131.923 Y82.955 E0.02010
G1 F8640.000
G1 X132.174 Y83.877 E-0.22066
G1 X132.174 Y86.213 E-0.53934
G1 E-0.04000 F2100.00000
G1 Z0.950 F10800.000
G1 X129.157 Y84.643
G1 Z0.350
G1 E0.80000 F2100.00000
M204 S800
G1 F2700.000
G1 X129.157 Y125.357 E1.06084
G1 X120.843 Y125.357 E0.21664
G1 X120.843 Y84.643 E1.06084
G1 X129.097 Y84.643 E0.21507
M204 S1000
G1 X129.575 Y84.225 F10800.000
M204 S800
G1 F1500.000
G1 X129.575 Y125.775 E1.08262
G1 X120.425 Y125.775 E0.23841
G1 X120.425 Y84.225 E1.08262
G1 X129.515 Y84.225 E0.23685
M204 S1000
G1 X129.546 Y84.624 F10800.000
G1 F8640.000
G1 X129.520 Y87.516 E-0.76000
G1 E-0.04000 F2100.00000
G1 Z0.950 F10800.000
G1 X128.184 Y125.232
G1 Z0.350
G1 E0.80000 F2100.00000
G1 F4800.000
G1 X128.844 Y124.572 E0.02438
G1 X128.844 Y123.980 E0.01550
G1 X127.780 Y125.044 E0.03935
G1 X127.187 Y125.044 E0.01550
G1 X128.844 Y123.387 E0.06126
G1 X128.844 Y122.794 E0.01550
G1 X126.594 Y125.044 E0.08318
G1 X126.001 Y125.044 E0.01550
G1 X128.844 Y122.201 E0.10510
G1 X128.844 Y121.608 E0.01550
G1 X125.408 Y125.044 E0.12701
G1 X124.815 Y125.044 E0.01550
G1 X128.844 Y121.015 E0.14893
G1 X128.844 Y120.423 E0.01550
G1 X124.223 Y125.044 E0.17084
G1 X123.630 Y125.044 E0.01550
G1 X128.844 Y119.830 E0.19276
G1 X128.844 Y119.237 E0.01550
G1 X123.037 Y125.044 E0.21468
G1 X122.444 Y125.044 E0.01550
G1 X128.844 Y118.644 E0.23659
G1 X128.844 Y118.051 E0.01550
G1 X121.851 Y125.044 E0.25851
G1 X121.259 Y125.044 E0.01550
G1 X128.844 Y117.459 E0.28042
G1 X128.844 Y116.866 E0.01550
G1 X121.156 Y124.553 E0.28421
G1 X121.156 Y123.961 E0.01550
G1 X128.844 Y116.273 E0.28421
G1 X128.844 Y115.680 E0.01550
G1 X121.156 Y123.368 E0.28421
G1 X121.156 Y122.775 E0.01550
G1 X128.844 Y115.087 E0.28421
G1 X128.844 Y114.494 E0.01550
G1 X121.156 Y122.182 E0.28421
G1 X121.156 Y121.589 E0.01550
G1 X128.844 Y113.902 E0.28421
G1 X128.844 Y113.309 E0.01550
G1 X121.156 Y120.997 E0.28421
G1 X121.156 Y120.404 E0.01550
G1 X128.844 Y112.716 E0.28421
G1 X128.844 Y112.123 E0.01550
G1 X121.156 Y119.811 E0.28421
G1 X121.156 Y119.218 E0.01550
G1 X128.844 Y111.530 E0.28421
G1 X128.844 Y110.938 E0.01550
G1 X121.156 Y118.625 E0.28421
G1 X121.156 Y118.032 E0.01550
G1 X128.844 Y110.345 E0.28421
G1 X128.844 Y109.752 E0.01550
G1 X121.156 Y117.440 E0.28421
G1 X121.156 Y116.847 E0.01550
G1 X128.844 Y109.159 E0.28421
G1 X128.844 Y108.566 E0.01550
G1 X121.156 Y116.254 E0.28421
G1 X121.156 Y115.661 E0.01550
G1 X128.844 Y107.974 E0.28421
G1 X128.844 Y107.381 E0.01550
G1 X121.156 Y115.068 E0.28421
G1 X121.156 Y114.476 E0.01550
G1 X128.844 Y106.788 E0.28421
G1 X128.844 Y106.195 E0.01550
G1 X121.156 Y113.883 E0.28421
G1 X121.156 Y113.290 E0.01550
G1 X128.844 Y105.602 E0.28421
G1 X128.844 Y105.009 E0.01550
G1 X121.156 Y112.697 E0.28421
G1 X121.156 Y112.104 E0.01550
G1 X128.844 Y104.417 E0.28421
G1 X128.844 Y103.824 E0.01550
G1 X121.156 Y111.511 E0.28421
G1 X121.156 Y110.919 E0.01550
G1 X128.844 Y103.231 E0.28421
G1 X128.844 Y102.638 E0.01550
G1 X121.156 Y110.326 E0.28421
G1 X121.156 Y109.733 E0.01550
G1 X128.844 Y102.045 E0.28421
G1 X128.844 Y101.453 E0.01550
G1 X121.156 Y109.140 E0.28421
G1 X121.156 Y108.547 E0.01550
G1 X128.844 Y100.860 E0.28421
G1 X128.844 Y100.267 E0.01550
G1 X121.156 Y107.955 E0.28421
G1 X121.156 Y107.362 E0.01550
G1 X128.844 Y99.674 E0.28421
G1 X128.844 Y99.081 E0.01550
G1 X121.156 Y106.769 E0.28421
G1 X121.156 Y106.176 E0.01550
G1 X128.844 Y98.488 E0.28421
G1 X128.844 Y97.896 E0.01550
G1 X121.156 Y105.583 E0.28421
G1 X121.156 Y104.990 E0.01550
G1 X128.844 Y97.303 E0.28421
G1 X128.844 Y96.710 E0.01550
G1 X121.156 Y104.398 E0.28421
G1 X121.156 Y103.805 E0.01550
G1 X128.844 Y96.117 E0.28421
G1 X128.844 Y95.524 E0.01550
G1 X121.156 Y103.212 E0.28421
G1 X121.156 Y102.619 E0.01550
G1 X128.844 Y94.932 E0.28421
G1 X128.844 Y94.339 E0.01550
G1 X121.156 Y102.026 E0.28421
G1 X121.156 Y101.434 E0.01550
G1 X128.844 Y93.746 E0.28421
G1 X128.844 Y93.153 E0.01550
G1 X121.156 Y100.841 E0.28421
G1 X121.156 Y100.248 E0.01550
G1 X128.844 Y92.560 E0.28421
G1 X128.844 Y91.967 E0.01550
G1 X121.156 Y99.655 E0.28421
G1 X121.156 Y99.062 E0.01550
G1 X128.844 Y91.375 E0.28421
G1 X128.844 Y90.782 E0.01550
G1 X121.156 Y98.470 E0.28421
G1 X121.156 Y97.877 E0.01550
G1 X128.844 Y90.189 E0.28421
G1 X128.844 Y89.596 E0.01550
G1 X121.156 Y97.284 E0.28421
G1 X121.156 Y96.691 E0.01550
G1 X128.844 Y89.003 E0.28421
G1 X128.844 Y88.411 E0.01550
G1 X121.156 Y96.098 E0.28421
G1 X121.156 Y95.505 E0.01550
G1 X128.844 Y87.818 E0.28421
G1 X128.844 Y87.225 E0.01550
G1 X121.156 Y94.913 E0.28421
G1 X121.156 Y94.320 E0.01550
G1 X128.844 Y86.632 E0.28421
G1 X128.844 Y86.039 E0.01550
G1 X121.156 Y93.727 E0.28421
G1 X121.156 Y93.134 E0.01550
G1 X128.844 Y85.447 E0.28421
G1 X128.844 Y84.956 E0.01282
G1 X128.741 Y84.956 E0.00268
G1 X121.156 Y92.541 E0.28042
G1 X121.156 Y91.949 E0.01550
G1 X128.149 Y84.956 E0.25851
G1 X127.556 Y84.956 E0.01550
G1 X121.156 Y91.356 E0.23659
G1 X121.156 Y90.763 E0.01550
G1 X126.963 Y84.956 E0.21467
G1 X126.370 Y84.956 E0.01550
G1 X121.156 Y90.170 E0.19276
G1 X121.156 Y89.577 E0.01550
G1 X125.777 Y84.956 E0.17084
G1 X125.184 Y84.956 E0.01550
G1 X121.156 Y88.984 E0.14893
G1 X121.156 Y88.392 E0.01550
G1 X124.592 Y84.956 E0.12701
G1 X123.999 Y84.956 E0.01550
G1 X121.156 Y87.799 E0.10509
G1 X121.156 Y87.206 E0.01550
G1 X123.406 Y84.956 E0.08318
G1 X122.813 Y84.956 E0.01550
G1 X121.156 Y86.613 E0.06126
