; generated by PrusaSlicer 2.2.0+ on 2020-10-18 at 17:50:52 UTC

; 

; external perimeters extrusion width = 0.45mm
; perimeters extrusion width = 0.45mm
; infill extrusion width = 0.45mm
; solid infill extrusion width = 0.45mm
; top infill extrusion width = 0.40mm
; first layer extrusion width = 0.42mm

M73 P0 R46
M73 Q0 S47
M201 X1000 Y1000 Z200 E5000 ; sets maximum accelerations, mm/sec^2
M203 X200 Y200 Z12 E120 ; sets maximum feedrates, mm/sec
M204 P1250 R1250 T1250 ; sets acceleration (P, T) and retract acceleration (R), mm/sec^2
M205 X8.00 Y8.00 Z0.40 E4.50 ; sets the jerk limits, mm/sec
M205 S0 T0 ; sets the minimum extruding and travel feed rate, mm/sec
M107
M862.3 P "MK3" ; printer model check
M862.1 P0.4 ; nozzle diameter check
M115 U3.9.1 ; tell printer latest fw version
G90 ; use absolute coordinates
M83 ; extruder relative mode
M104 S215 ; set extruder temp
M140 S60 ; set bed temp
M190 S60 ; wait for bed temp
M109 S215 ; wait for extruder temp
G28 W ; home all without mesh bed level
G80 ; mesh bed leveling
G1 Y-3.0 F1000.0 ; go outside print area
G92 E0.0
G1 X60.0 E9.0 F1000.0 ; intro line
M73 Q0 S47
M73 P0 R46
G1 X100.0 E12.5 F1000.0 ; intro line
G92 E0.0
M221 S95

; Don't change E values below. Excessive value can damage the printer.
M907 E430 ; set extruder motor current
G21 ; set units to millimeters
G90 ; use absolute coordinates
M83 ; use relative distances for extrusion
; Filament gcode
;BEFORE_LAYER_CHANGE
G92 E0.0
;0.2


G1 E-0.80000 F2100.00000
G1 Z0.600 F10800.000
;AFTER_LAYER_CHANGE
;0.2
G1 X116.542 Y75.811
G1 Z0.200
G1 E0.80000 F2100.00000
M204 S1000
G1 F1200.000
G1 X116.999 Y75.243 E0.02284
G1 X117.606 Y74.841 E0.02284
G1 X118.310 Y74.641 E0.02296
G1 X131.404 Y74.623 E0.41054
G1 X132.292 Y74.797 E0.02837
G1 X133.048 Y75.287 E0.02825
G1 X133.569 Y76.027 E0.02837
G1 X133.775 Y76.908 E0.02837
G1 X133.777 Y133.004 E1.75886
G1 X133.722 Y133.510 E0.01597
G1 X133.456 Y134.193 E0.02296
G1 X132.993 Y134.764 E0.02308
G1 X132.380 Y135.166 E0.02296
G1 X131.675 Y135.361 E0.02296
G1 X118.592 Y135.377 E0.41019
G1 X118.090 Y135.322 E0.01585
G1 X117.365 Y135.031 E0.02449
G1 X116.771 Y134.518 E0.02461
G1 X116.377 Y133.843 E0.02449
G1 X116.224 Y133.073 E0.02461
G1 X116.223 Y76.996 E1.75826
G1 X116.278 Y76.490 E0.01597
G1 X116.520 Y75.867 E0.02096
G1 F8640.000
G1 X116.999 Y75.243 E-0.18145
G1 X117.606 Y74.841 E-0.16820
G1 X118.310 Y74.641 E-0.16907
G1 X119.355 Y74.639 E-0.24128
G1 E-0.04000 F2100.00000
G1 Z0.800 F10800.000
G1 X119.387 Y77.787
G1 Z0.200
G1 E0.80000 F2100.00000
G1 F1200.000
G1 X130.613 Y77.787 E0.35198
G1 X130.613 Y132.213 E1.70648
G1 X119.387 Y132.213 E0.35198
G1 X119.387 Y77.847 E1.70460
G1 X119.010 Y77.410 F10800.000
G1 F1200.000
G1 X130.990 Y77.410 E0.37562
G1 X130.990 Y132.590 E1.73013
G1 X119.010 Y132.590 E0.37562
G1 X119.010 Y77.470 E1.72825
G1 X119.370 Y77.585 F10800.000
G1 F8640.000
G1 X122.301 Y77.454 E-0.76000
G1 E-0.04000 F2100.00000
G1 Z0.800 F10800.000
G1 X120.265 Y132.100
G1 Z0.200
G1 E0.80000 F2100.00000
G1 F1200.000
G1 X119.670 Y131.505 E0.02648
G1 X119.670 Y130.970 E0.01683
G1 X120.630 Y131.930 E0.04273
G1 X121.165 Y131.930 E0.01683
G1 X119.670 Y130.435 E0.06653
G1 X119.670 Y129.900 E0.01683
G1 X121.700 Y131.930 E0.09034
G1 X122.235 Y131.930 E0.01683
G1 X119.670 Y129.365 E0.11414
G1 X119.670 Y128.830 E0.01683
G1 X122.770 Y131.930 E0.13794
G1 X123.306 Y131.930 E0.01683
G1 X119.670 Y128.294 E0.16174
G1 X119.670 Y127.759 E0.01683
G1 X123.841 Y131.930 E0.18555
G1 X124.376 Y131.930 E0.01683
G1 X119.670 Y127.224 E0.20935
G1 X119.670 Y126.689 E0.01683
G1 X124.911 Y131.930 E0.23315
G1 X125.446 Y131.930 E0.01683
G1 X119.670 Y126.154 E0.25696
G1 X119.670 Y125.619 E0.01683
G1 X125.981 Y131.930 E0.28076
G1 X126.516 Y131.930 E0.01683
G1 X119.670 Y125.084 E0.30456
G1 X119.670 Y124.549 E0.01683
G1 X127.051 Y131.930 E0.32837
G1 X127.586 Y131.930 E0.01683
G1 X119.670 Y124.014 E0.35217
G1 X119.670 Y123.479 E0.01683
G1 X128.121 Y131.930 E0.37597
G1 X128.656 Y131.930 E0.01683
G1 X119.670 Y122.944 E0.39978
G1 X119.670 Y122.409 E0.01683
G1 X129.191 Y131.930 E0.42358
G1 X129.726 Y131.930 E0.01683
G1 X119.670 Y121.874 E0.44738
G1 X119.670 Y121.339 E0.01683
G1 X130.261 Y131.930 E0.47118
G1 X130.330 Y131.930 E0.00217
G1 X130.330 Y131.464 E0.01466
G1 X119.670 Y120.804 E0.47426
G1 X119.670 Y120.269 E0.01683
G1 X130.330 Y130.929 E0.47426
G1 X130.330 Y130.394 E0.01683
G1 X119.670 Y119.734 E0.47426
G1 X119.670 Y119.199 E0.01683
G1 X130.330 Y129.859 E0.47426
G1 X130.330 Y129.324 E0.01683
G1 X119.670 Y118.664 E0.47426
G1 X119.670 Y118.129 E0.01683
G1 X130.330 Y128.789 E0.47426
G1 X130.330 Y128.254 E0.01683
G1 X119.670 Y117.594 E0.47426
G1 X119.670 Y117.059 E0.01683
G1 X130.330 Y127.719 E0.47426
G1 X130.330 Y127.184 E0.01683
G1 X119.670 Y116.524 E0.47426
G1 X119.670 Y115.989 E0.01683
G1 X130.330 Y126.649 E0.47426
G1 X130.330 Y126.114 E0.01683
G1 X119.670 Y115.454 E0.47426
G1 X119.670 Y114.919 E0.01683
G1 X130.330 Y125.579 E0.47426
G1 X130.330 Y125.044 E0.01683
G1 X119.670 Y114.383 E0.47426
G1 X119.670 Y113.848 E0.01683
G1 X130.330 Y124.509 E0.47426
G1 X130.330 Y123.974 E0.01683
G1 X119.670 Y113.313 E0.47426
G1 X119.670 Y112.778 E0.01683
G1 X130.330 Y123.439 E0.47426
G1 X130.330 Y122.904 E0.01683
G1 X119.670 Y112.243 E0.47426
G1 X119.670 Y111.708 E0.01683
G1 X130.330 Y122.369 E0.47426
G1 X130.330 Y121.834 E0.01683
G1 X119.670 Y111.173 E0.47426
G1 X119.670 Y110.638 E0.01683
G1 X130.330 Y121.298 E0.47426
G1 X130.330 Y120.763 E0.01683
G1 X119.670 Y110.103 E0.47426
G1 X119.670 Y109.568 E0.01683
G1 X130.330 Y120.228 E0.47426
G1 X130.330 Y119.693 E0.01683
G1 X119.670 Y109.033 E0.47426
G1 X119.670 Y108.498 E0.01683
G1 X130.330 Y119.158 E0.47426
G1 X130.330 Y118.623 E0.01683
G1 X119.670 Y107.963 E0.47426
G1 X119.670 Y107.428 E0.01683
G1 X130.330 Y118.088 E0.47426
G1 X130.330 Y117.553 E0.01683
G1 X119.670 Y106.893 E0.47426
G1 X119.670 Y106.358 E0.01683
G1 X130.330 Y117.018 E0.47426
G1 X130.330 Y116.483 E0.01683
G1 X119.670 Y105.823 E0.47426
G1 X119.670 Y105.288 E0.01683
G1 X130.330 Y115.948 E0.47426
G1 X130.330 Y115.413 E0.01683
G1 X119.670 Y104.753 E0.47426
G1 X119.670 Y104.218 E0.01683
G1 X130.330 Y114.878 E0.47426
G1 X130.330 Y114.343 E0.01683
G1 X119.670 Y103.683 E0.47426
M73 Q2 S46
M73 P2 R45
G1 X119.670 Y103.148 E0.01683
G1 X130.330 Y113.808 E0.47426
G1 X130.330 Y113.273 E0.01683
G1 X119.670 Y102.613 E0.47426
G1 X119.670 Y102.078 E0.01683
G1 X130.330 Y112.738 E0.47426
G1 X130.330 Y112.203 E0.01683
G1 X119.670 Y101.543 E0.47426
G1 X119.670 Y101.008 E0.01683
G1 X130.330 Y111.668 E0.47426
G1 X130.330 Y111.133 E0.01683
G1 X119.670 Y100.472 E0.47426
G1 X119.670 Y99.937 E0.01683
G1 X130.330 Y110.598 E0.47426
G1 X130.330 Y110.063 E0.01683
G1 X119.670 Y99.402 E0.47426
G1 X119.670 Y98.867 E0.01683
G1 X130.330 Y109.528 E0.47426
G1 X130.330 Y108.993 E0.01683
G1 X119.670 Y98.332 E0.47426
G1 X119.670 Y97.797 E0.01683
G1 X130.330 Y108.458 E0.47426
G1 X130.330 Y107.923 E0.01683
G1 X119.670 Y97.262 E0.47426
G1 X119.670 Y96.727 E0.01683
G1 X130.330 Y107.387 E0.47426
G1 X130.330 Y106.852 E0.01683
G1 X119.670 Y96.192 E0.47426
G1 X119.670 Y95.657 E0.01683
G1 X130.330 Y106.317 E0.47426
G1 X130.330 Y105.782 E0.01683
G1 X119.670 Y95.122 E0.47426
G1 X119.670 Y94.587 E0.01683
G1 X130.330 Y105.247 E0.47426
G1 X130.330 Y104.712 E0.01683
G1 X119.670 Y94.052 E0.47426
G1 X119.670 Y93.517 E0.01683
G1 X130.330 Y104.177 E0.47426
G1 X130.330 Y103.642 E0.01683
G1 X119.670 Y92.982 E0.47426
G1 X119.670 Y92.447 E0.01683
G1 X130.330 Y103.107 E0.47426
G1 X130.330 Y102.572 E0.01683
G1 X119.670 Y91.912 E0.47426
G1 X119.670 Y91.377 E0.01683
G1 X130.330 Y102.037 E0.47426
G1 X130.330 Y101.502 E0.01683
G1 X119.670 Y90.842 E0.47426
G1 X119.670 Y90.307 E0.01683
G1 X130.330 Y100.967 E0.47426
G1 X130.330 Y100.432 E0.01683
G1 X119.670 Y89.772 E0.47426
G1 X119.670 Y89.237 E0.01683
G1 X130.330 Y99.897 E0.47426
G1 X130.330 Y99.362 E0.01683
G1 X119.670 Y88.702 E0.47426
G1 X119.670 Y88.167 E0.01683
G1 X130.330 Y98.827 E0.47426
G1 X130.330 Y98.292 E0.01683
G1 X119.670 Y87.632 E0.47426
G1 X119.670 Y87.097 E0.01683
G1 X130.330 Y97.757 E0.47426
G1 X130.330 Y97.222 E0.01683
G1 X119.670 Y86.562 E0.47426
G1 X119.670 Y86.026 E0.01683
G1 X130.330 Y96.687 E0.47426
G1 X130.330 Y96.152 E0.01683
G1 X119.670 Y85.491 E0.47426
G1 X119.670 Y84.956 E0.01683
G1 X130.330 Y95.617 E0.47426
G1 X130.330 Y95.082 E0.01683
G1 X119.670 Y84.421 E0.47426
G1 X119.670 Y83.886 E0.01683
G1 X130.330 Y94.547 E0.47426
G1 X130.330 Y94.012 E0.01683
G1 X119.670 Y83.351 E0.47426
G1 X119.670 Y82.816 E0.01683
G1 X130.330 Y93.476 E0.47426
G1 X130.330 Y92.941 E0.01683
G1 X119.670 Y82.281 E0.47426
G1 X119.670 Y81.746 E0.01683
G1 X130.330 Y92.406 E0.47426
G1 X130.330 Y91.871 E0.01683
G1 X119.670 Y81.211 E0.47426
G1 X119.670 Y80.676 E0.01683
G1 X130.330 Y91.336 E0.47426
G1 X130.330 Y90.801 E0.01683
G1 X119.670 Y80.141 E0.47426
G1 X119.670 Y79.606 E0.01683
G1 X130.330 Y90.266 E0.47426
G1 X130.330 Y89.731 E0.01683
G1 X119.670 Y79.071 E0.47426
G1 X119.670 Y78.536 E0.01683
G1 X130.330 Y89.196 E0.47426
G1 X130.330 Y88.661 E0.01683
G1 X119.739 Y78.070 E0.47119
G1 X120.274 Y78.070 E0.01683
G1 X130.330 Y88.126 E0.44739
G1 X130.330 Y87.591 E0.01683
G1 X120.809 Y78.070 E0.42358
G1 X121.344 Y78.070 E0.01683
G1 X130.330 Y87.056 E0.39978
G1 X130.330 Y86.521 E0.01683
G1 X121.879 Y78.070 E0.37598
G1 X122.414 Y78.070 E0.01683
G1 X130.330 Y85.986 E0.35218
G1 X130.330 Y85.451 E0.01683
G1 X122.949 Y78.070 E0.32837
G1 X123.484 Y78.070 E0.01683
G1 X130.330 Y84.916 E0.30457
G1 X130.330 Y84.381 E0.01683
G1 X124.019 Y78.070 E0.28077
G1 X124.554 Y78.070 E0.01683
G1 X130.330 Y83.846 E0.25696
G1 X130.330 Y83.311 E0.01683
G1 X125.089 Y78.070 E0.23316
G1 X125.624 Y78.070 E0.01683
G1 X130.330 Y82.776 E0.20936
G1 X130.330 Y82.241 E0.01683
G1 X126.159 Y78.070 E0.18555
G1 X126.694 Y78.070 E0.01683
G1 X130.330 Y81.706 E0.16175
G1 X130.330 Y81.171 E0.01683
G1 X127.229 Y78.070 E0.13795
G1 X127.764 Y78.070 E0.01683
G1 X130.330 Y80.636 E0.11414
G1 X130.330 Y80.101 E0.01683
G1 X128.299 Y78.070 E0.09034
G1 X128.834 Y78.070 E0.01683
G1 X130.330 Y79.566 E0.06654
G1 X130.330 Y79.030 E0.01683
G1 X129.370 Y78.070 E0.04274
G1 X129.905 Y78.070 E0.01683
G1 X130.500 Y78.665 E0.02648
;BEFORE_LAYER_CHANGE
G92 E0.0
;0.35


G1 F8640.000
G1 X129.905 Y78.070 E-0.19437
G1 X129.370 Y78.070 E-0.12354
G1 X130.330 Y79.030 E-0.31368
G1 X130.330 Y79.566 E-0.12354
G1 X130.315 Y79.551 E-0.00487
G1 E-0.04000 F2100.00000
G1 Z0.800 F10800.000
;AFTER_LAYER_CHANGE
;0.35
G1 X133.569 Y76.027
G1 Z0.350
G1 E0.80000 F2100.00000
G1 F3000.000
G1 X133.775 Y76.908 E0.02188
G1 X133.777 Y133.004 E1.35668
G1 X133.722 Y133.510 E0.01232
G1 X133.456 Y134.193 E0.01771
G1 X132.993 Y134.764 E0.01780
G1 X132.380 Y135.166 E0.01771
G1 X131.675 Y135.361 E0.01771
G1 X118.592 Y135.377 E0.31639
G1 X118.090 Y135.322 E0.01223
G1 X117.365 Y135.031 E0.01889
G1 X116.771 Y134.518 E0.01898
G1 X116.377 Y133.843 E0.01889
G1 X116.224 Y133.073 E0.01898
G1 X116.223 Y76.996 E1.35622
G1 X116.278 Y76.490 E0.01232
G1 X116.542 Y75.811 E0.01762
G1 X116.999 Y75.243 E0.01762
G1 X117.606 Y74.841 E0.01762
G1 X118.310 Y74.641 E0.01771
G1 X131.404 Y74.623 E0.31667
G1 X132.292 Y74.797 E0.02188
G1 X133.048 Y75.287 E0.02179
G1 X133.534 Y75.978 E0.02043
G1 F8640.000
G1 X133.775 Y76.908 E-0.22183
G1 X133.775 Y79.238 E-0.53817
G1 E-0.04000 F2100.00000
G1 Z0.950 F10800.000
G1 X130.757 Y77.643
G1 Z0.350
G1 E0.80000 F2100.00000
M204 S800
G1 F2700.000
G1 X130.757 Y132.357 E1.42563
G1 X119.243 Y132.357 E0.30002
G1 X119.243 Y77.643 E1.42563
G1 X130.697 Y77.643 E0.29845
M204 S1000
G1 X131.175 Y77.225 F10800.000
M204 S800
G1 F1500.000
G1 X131.175 Y132.775 E1.44740
G1 X118.825 Y132.775 E0.32179
G1 X118.825 Y77.225 E1.44740
G1 X131.115 Y77.225 E0.32023
M204 S1000
G1 X131.146 Y77.624 F10800.000
G1 F8640.000
G1 X131.119 Y80.516 E-0.76000
G1 E-0.04000 F2100.00000
G1 Z0.950 F10800.000
G1 X129.784 Y132.232
G1 Z0.350
G1 E0.80000 F2100.00000
G1 F4800.000
G1 X130.444 Y131.572 E0.02439
G1 X130.444 Y130.979 E0.01550
G1 X129.379 Y132.044 E0.03936
G1 X128.786 Y132.044 E0.01550
G1 X130.444 Y130.386 E0.06128
G1 X130.444 Y129.794 E0.01550
G1 X128.194 Y132.044 E0.08320
G1 X127.601 Y132.044 E0.01550
G1 X130.444 Y129.201 E0.10512
M73 Q4 S45
G1 X130.444 Y128.608 E0.01550
G1 X127.008 Y132.044 E0.12705
M73 P4 R44
G1 X126.415 Y132.044 E0.01550
G1 X130.444 Y128.015 E0.14897
G1 X130.444 Y127.422 E0.01550
G1 X125.822 Y132.044 E0.17089
G1 X125.229 Y132.044 E0.01550
G1 X130.444 Y126.829 E0.19281
G1 X130.444 Y126.236 E0.01550
G1 X124.636 Y132.044 E0.21473
G1 X124.043 Y132.044 E0.01550
G1 X130.444 Y125.643 E0.23665
G1 X130.444 Y125.050 E0.01550
G1 X123.450 Y132.044 E0.25858
G1 X122.858 Y132.044 E0.01550
G1 X130.444 Y124.458 E0.28050
G1 X130.444 Y123.865 E0.01550
G1 X122.265 Y132.044 E0.30242
G1 X121.672 Y132.044 E0.01550
G1 X130.444 Y123.272 E0.32434
G1 X130.444 Y122.679 E0.01550
G1 X121.079 Y132.044 E0.34626
G1 X120.486 Y132.044 E0.01550
G1 X130.444 Y122.086 E0.36818
G1 X130.444 Y121.493 E0.01550
G1 X119.893 Y132.044 E0.39011
G1 X119.556 Y132.044 E0.00881
G1 X119.556 Y131.788 E0.00669
G1 X130.444 Y120.900 E0.40256
G1 X130.444 Y120.307 E0.01550
G1 X119.556 Y131.195 E0.40256
G1 X119.556 Y130.602 E0.01550
G1 X130.444 Y119.714 E0.40256
G1 X130.444 Y119.122 E0.01550
G1 X119.556 Y130.009 E0.40256
G1 X119.556 Y129.416 E0.01550
G1 X130.444 Y118.529 E0.40256
G1 X130.444 Y117.936 E0.01550
G1 X119.556 Y128.823 E0.40256
G1 X119.556 Y128.231 E0.01550
G1 X130.444 Y117.343 E0.40256
G1 X130.444 Y116.750 E0.01550
G1 X119.556 Y127.638 E0.40256
G1 X119.556 Y127.045 E0.01550
G1 X130.444 Y116.157 E0.40256
G1 X130.444 Y115.564 E0.01550
G1 X119.556 Y126.452 E0.40256
G1 X119.556 Y125.859 E0.01550
G1 X130.444 Y114.971 E0.40256
G1 X130.444 Y114.378 E0.01550
G1 X119.556 Y125.266 E0.40256
G1 X119.556 Y124.673 E0.01550
G1 X130.444 Y113.786 E0.40256
G1 X130.444 Y113.193 E0.01550
G1 X119.556 Y124.080 E0.40256
G1 X119.556 Y123.487 E0.01550
G1 X130.444 Y112.600 E0.40256
G1 X130.444 Y112.007 E0.01550
G1 X119.556 Y122.895 E0.40256
G1 X119.556 Y122.302 E0.01550
G1 X130.444 Y111.414 E0.40256
G1 X130.444 Y110.821 E0.01550
G1 X119.556 Y121.709 E0.40256
G1 X119.556 Y121.116 E0.01550
G1 X130.444 Y110.228 E0.40256
G1 X130.444 Y109.635 E0.01550
G1 X119.556 Y120.523 E0.40256
G1 X119.556 Y119.930 E0.01550
G1 X130.444 Y109.042 E0.40256
G1 X130.444 Y108.450 E0.01550
G1 X119.556 Y119.337 E0.40256
G1 X119.556 Y118.744 E0.01550
G1 X130.444 Y107.857 E0.40256
G1 X130.444 Y107.264 E0.01550
G1 X119.556 Y118.151 E0.40256
G1 X119.556 Y117.558 E0.01550
G1 X130.444 Y106.671 E0.40256
G1 X130.444 Y106.078 E0.01550
G1 X119.556 Y116.966 E0.40256
G1 X119.556 Y116.373 E0.01550
G1 X130.444 Y105.485 E0.40256
G1 X130.444 Y104.892 E0.01550
G1 X119.556 Y115.780 E0.40256
G1 X119.556 Y115.187 E0.01550
G1 X130.444 Y104.299 E0.40256
G1 X130.444 Y103.706 E0.01550
G1 X119.556 Y114.594 E0.40256
G1 X119.556 Y114.001 E0.01550
G1 X130.444 Y103.113 E0.40256
G1 X130.444 Y102.521 E0.01550
G1 X119.556 Y113.408 E0.40256
G1 X119.556 Y112.815 E0.01550
G1 X130.444 Y101.928 E0.40256
G1 X130.444 Y101.335 E0.01550
G1 X119.556 Y112.222 E0.40256
G1 X119.556 Y111.630 E0.01550
G1 X130.444 Y100.742 E0.40256
G1 X130.444 Y100.149 E0.01550
G1 X119.556 Y111.037 E0.40256
G1 X119.556 Y110.444 E0.01550
G1 X130.444 Y99.556 E0.40256
G1 X130.444 Y98.963 E0.01550
G1 X119.556 Y109.851 E0.40256
G1 X119.556 Y109.258 E0.01550
G1 X130.444 Y98.370 E0.40256
G1 X130.444 Y97.777 E0.01550
G1 X119.556 Y108.665 E0.40256
G1 X119.556 Y108.072 E0.01550
G1 X130.444 Y97.185 E0.40256
G1 X130.444 Y96.592 E0.01550
G1 X119.556 Y107.479 E0.40256
G1 X119.556 Y106.886 E0.01550
G1 X130.444 Y95.999 E0.40256
G1 X130.444 Y95.406 E0.01550
G1 X119.556 Y106.294 E0.40256
G1 X119.556 Y105.701 E0.01550
G1 X130.444 Y94.813 E0.40256
G1 X130.444 Y94.220 E0.01550
G1 X119.556 Y105.108 E0.40256
G1 X119.556 Y104.515 E0.01550
G1 X130.444 Y93.627 E0.40256
G1 X130.444 Y93.034 E0.01550
G1 X119.556 Y103.922 E0.40256
G1 X119.556 Y103.329 E0.01550
G1 X130.444 Y92.441 E0.40256
G1 X130.444 Y91.849 E0.01550
G1 X119.556 Y102.736 E0.40256
G1 X119.556 Y102.143 E0.01550
G1 X130.444 Y91.256 E0.40256
